dist/svg/static/anti-theft-alarm-system-small.svg

<svg xmlns="http://www.w3.org/2000/svg" width="24" height="24" viewBox="0 0 24 24"><g fill="none" stroke="currentColor" stroke-miterlimit="10"><path d="M5.1 20.5H19c.3 0 .6.2.6.5v2c0 .3-.3.5-.6.5H5.1c-.3 0-.6-.2-.6-.5v-2c0-.3.3-.5.6-.5zM6 20.5L8.4 8.8c0-.3.2-.3.5-.3h6.2c.3 0 .5 0 .5.3L18 20.5"/><g><path d="M19 12.5h5M17.2 7.2l4-4.1M11.5 0v6M6.9 7.2l-4-4.1M0 12.5h5"/></g></g></svg>

<?xml version="1.0" encoding="UTF-8" standalone="no"?>
<svg width="24px" height="24px" viewBox="0 0 24 24" version="1.1" xmlns="http://www.w3.org/2000/svg" xmlns:xlink="http://www.w3.org/1999/xlink">
    <!-- Generator: sketchtool 46.2 (44496) - http://www.bohemiancoding.com/sketch -->
    <title>anti-theft-alarm-system-small</title>
    <desc>Created with sketchtool.</desc>
    <defs></defs>
    <g id="icons-published" stroke="none" stroke-width="1" fill="none" fill-rule="evenodd">
        <g id="briefing" transform="translate(-1796.000000, -26.000000)"></g>
        <g id="anti-theft-alarm-system-small" stroke="#000000">
            <path d="M5.1,20.5 L19,20.5 C19.3,20.5 19.6,20.7 19.6,21 L19.6,23 C19.6,23.3 19.3,23.5 19,23.5 L5.1,23.5 C4.8,23.5 4.5,23.3 4.5,23 L4.5,21 C4.5,20.7 4.8,20.5 5.1,20.5 Z" id="Shape"></path>
            <path d="M6,20.5 L8.4,8.8 C8.4,8.5 8.6,8.5 8.9,8.5 L15.1,8.5 C15.4,8.5 15.6,8.5 15.6,8.8 L18,20.5" id="Path"></path>
            <path d="M19,12.5 L24,12.5 M17.2,7.2 L21.2,3.1 M11.5,0 L11.5,6 M6.9,7.2 L2.9,3.1 M0,12.5 L5,12.5" id="Shape"></path>
        </g>
    </g>
</svg>
